!!!OTL: ROSEN AUF DEN WEG GESTREUT
!!!ARE: Europa, Mitteleuropa, Deutschland
!!!SCT: F0115
!!!YEM: Copyright 1995, estate of Helmut Schaffrath.
**kern
*ICvox
*Ivox
*M2/4
*k[f#c#g#]
*A:
=1
{8a
8e
8e
16d
16c#
=2
8f#
8f#
8f#
8r}
=3
{8.g#
16a
16b
16cc#
16dd
16b
=4
8.a
16cc#
8a
8r}
=5
{8a
8e
8e
16d
16c#
=6
8f#
8f#
8f#
8r}
=7
{8.g#
16a
16b
16cc#
16dd
16b
=8
8.a
16cc#
8a
8r}
=9
{8cc#
16b
16a
8b
8ee
=10
8a
16g#
16f#
8g#
8r}
=11
{8.cc#
16dd#
16ee
16b
16cc#
16a
=12
8g#
8f#
4e}
=13
{8a
8e
8e
16d
16c#
=14
8f#
8f#
8f#
8r}
=15
{8.g#
16a
16b
16cc#
16dd
16b
=16
8.a
16cc#
4a}
==
!!!AGN: Moral - Lied, Vergaenglichkeit
!!!ONB: ESAC (Essen Associative Code) Database: FINK
!!!AMT: simple duple
!!!AIN: vox
!!!EED: Helmut Schaffrath
!!!EEV: 1.0
*-
